X: 1888
T: Around The House And Mind The Dresser
R: slide
M: 12/8
K: Dmajor
g|:f2 d A2 =c B2 A G2 g|f2 d ABc d3 d2 g|
f2 d A2 =c B2 A G3|1 fag fBc d3 d2 g:|2 fag fBc d3 d2 a||
|:f2 g agf e2 f gfe|f2 g agf e3 g3|
f2 g agf e2 f g2 {a}g|1 gfe ABc d3 d2 a:|2 gfe ABc d3 d2 g||

